X: 19844
T: Jersey Lightning
R: reel
M: 4/4
K: Eminor
|:EFGA Be2B|cBAc Be2B|cBAc BAGB|AGFA G/F/E D2|
EFGA Be2B|cBAc Be2B|cBAc BAGB|1 AGFG E2D2:|2 AGFG E2Bc||
K: Gmaj
|:d^ced BGGB|d^ced BGG2|DEFG ABcd|BGAF GABc|
d^ced BGGB|d^ced BGG2|DEFG ABcd|1 BGAF G2Bc:|2 BGAF G2F2||

